X: 20464
M: 2/4
L: 1/16
K: D
(3(A2B2c2) |\
d2dd d2cB | ABGA F2A2 | E2A2D2A2 | Bcde dcBA |\
d2a2 fgaf | efgf fgaf | gabg fdfa | gfed dcBA |
z2 |\
d2b2 agfe | d2a2c2a2 | B2gB ABcd | ecBA d2df |\
edcB caaa | Bggg Afff | edcB caaa | bgbg afaf |
edcB cABG | AFGE DAFA | DAFA GEBE | GEBE FAdc |\


